X: 43286
T: Woodcock, The
R: jig
M: 6/8
K: Gmajor
|:"G" dBG "C" cGE|"G" DBD ~G3|"G" BAG dcB|"G" dcB "D" ABc|
"G" dBG "C" cGE|"G" DBD ~G3|"G" BAG "C" ded|"D" ABA "G" G2 d:|
|:"G" dBG "C" ecA|"D" ~f3 "G" g2 d|"C" e/f/ge "G" dBG|dcB "D" ABc|
[1 "G" dBG "C" ecA|"D" ~f3 "G" g2 d|"C" e/f/ge "G" dBG|"D" ABA "G" G2 d:|
[2 "G" dBG "C" cGE|"G" DBD ~G3|"G" BAG "C" ded|"D" ABA "G" G3||

